X: 2181
Q: "Strathspey."
M: C
L: 1/16
K: F
[|\
vFF3F3uG (Ac3) c4 | vB3vGuA3uF vG3uFEC3 |\
vFF3F3uG (Ac3) c4 | vB3vGuA3uF G3FEC3 |
vff3a3uf vg3ufec3 | vdd3f3ud vc3uBAF3 |\
ff3a3f g3fec3 |
defd efge f4 (f2ga) |\
vb3vgua3uf g3fd3f | c3Af3c BAGF G3uA |\


